icons/circle/48/steam_icon_65980.svg

<svg version="1.1" viewBox="0 0 48 48" xmlns="http://www.w3.org/2000/svg">
 <defs>
  <linearGradient id="linearGradient3764" x1="1" x2="47" gradientTransform="matrix(0 -1 1 0 -1.5e-6 48)" gradientUnits="userSpaceOnUse">
   <stop style="stop-color:#e4e4e4" offset="0"/>
   <stop style="stop-color:#eee" offset="1"/>
  </linearGradient>
 </defs>
 <path d="m36.31 5c5.859 4.062 9.688 10.831 9.688 18.5 0 12.426-10.07 22.5-22.5 22.5-7.669 0-14.438-3.828-18.5-9.688 1.037 1.822 2.306 3.499 3.781 4.969 4.085 3.712 9.514 5.969 15.469 5.969 12.703 0 23-10.298 23-23 0-5.954-2.256-11.384-5.969-15.469-1.469-1.475-3.147-2.744-4.969-3.781zm4.969 3.781c3.854 4.113 6.219 9.637 6.219 15.719 0 12.703-10.297 23-23 23-6.081 0-11.606-2.364-15.719-6.219 4.16 4.144 9.883 6.719 16.219 6.719 12.703 0 23-10.298 23-23 0-6.335-2.575-12.06-6.719-16.219z" style="opacity:.05"/>
 <path d="m41.28 8.781c3.712 4.085 5.969 9.514 5.969 15.469 0 12.703-10.297 23-23 23-5.954 0-11.384-2.256-15.469-5.969 4.113 3.854 9.637 6.219 15.719 6.219 12.703 0 23-10.298 23-23 0-6.081-2.364-11.606-6.219-15.719z" style="opacity:.1"/>
 <path d="m31.25 2.375c8.615 3.154 14.75 11.417 14.75 21.13 0 12.426-10.07 22.5-22.5 22.5-9.708 0-17.971-6.135-21.12-14.75a23 23 0 0 0 44.875 -7 23 23 0 0 0 -16 -21.875z" style="opacity:.2"/>
 <path d="m24 1c12.703 0 23 10.297 23 23s-10.297 23-23 23-23-10.297-23-23 10.297-23 23-23z" style="fill:url(#linearGradient3764)"/>
 <path d="m37 18v14l-12 6-12-6v-14l12-6" style="opacity:.1"/>
 <path d="m36 17v14l-12 6-12-6v-14l12-6" style="fill:#bababa"/>
 <path d="m40.03 7.531c3.712 4.084 5.969 9.514 5.969 15.469 0 12.703-10.297 23-23 23-5.954 0-11.384-2.256-15.469-5.969 4.178 4.291 10.01 6.969 16.469 6.969 12.703 0 23-10.298 23-23 0-6.462-2.677-12.291-6.969-16.469z" style="opacity:.1"/>
 <path d="m35 19-4 2v6l4 2z"/>
 <path d="m34.3 30.735-3.708-2.553-5.588 2.818v4.4z"/>
 <path d="m34.3 17.247-3.708 2.553-5.588-2.8v-4.418z"/>
 <path d="m13 19 4 2v6l-4 2z"/>
 <path d="m13.704 30.735 3.708-2.553 5.588 2.818v4.4z" style="fill:#000877"/>
 <path d="m13.704 17.247 3.708 2.553 5.588-2.8v-4.418z"/>
 <path d="m20 15c-1.657 0-3 1.343-3 3 0 0.645 0.216 1.229 0.563 1.719l0.125-0.063c-0.175-0.378-0.281-0.803-0.281-1.25 0-1.657 1.343-3 3-3 0.744 0 1.413 0.27 1.938 0.719-0.55-0.686-1.396-1.125-2.344-1.125z" style="fill:#f9f9f9"/>
 <path d="m29 24a5 5 0 1 1 -10 0 5 5 0 1 1 10 0z"/>
 <path d="m29.406 28.781l-4.406 2.219v4.406l5.781-2.906c-0.258-1.33-0.744-2.567-1.375-3.719z" style="fill:#000877"/>
 <path d="m19.406 22.06c-0.253 0.598-0.406 1.247-0.406 1.938 0 2.761 2.239 5 5 5 1.702 0 3.222-0.857 4.125-2.156-2.109-2.619-5.194-4.406-8.719-4.781z" style="fill:#000877"/>
 <path d="m17 22.03c-1.409 0.106-2.752 0.449-4 0.969v6l4-2v-4.969z" style="fill:#000877"/>
</svg>

<svg viewBox="0 0 48 48" xmlns="http://www.w3.org/2000/svg">
  <defs>
    <linearGradient id="a" x1="1" x2="47" gradientTransform="rotate(-90 24 24)" gradientUnits="userSpaceOnUse">
      <stop offset="0" stop-color="#e4e4e4"/>
      <stop offset="1" stop-color="#eee"/>
    </linearGradient>
  </defs>
  <path d="M36.31 5c5.859 4.062 9.688 10.831 9.688 18.5 0 12.426-10.07 22.5-22.5 22.5-7.669 0-14.438-3.828-18.5-9.688a23.24 23.24 0 0 0 3.781 4.969 22.923 22.923 0 0 0 15.469 5.969c12.703 0 23-10.298 23-23a22.92 22.92 0 0 0-5.969-15.469A23.216 23.216 0 0 0 36.31 5zm4.969 3.781A22.911 22.911 0 0 1 47.498 24.5c0 12.703-10.297 23-23 23a22.909 22.909 0 0 1-15.719-6.219C12.939 45.425 18.662 48 24.998 48c12.703 0 23-10.298 23-23 0-6.335-2.575-12.06-6.719-16.219z" opacity=".05"/>
  <path d="M41.28 8.781a22.923 22.923 0 0 1 5.969 15.469c0 12.703-10.297 23-23 23A22.92 22.92 0 0 1 8.78 41.281 22.911 22.911 0 0 0 24.499 47.5c12.703 0 23-10.298 23-23A22.909 22.909 0 0 0 41.28 8.781z" opacity=".1"/>
  <path d="M31.25 2.375C39.865 5.529 46 13.792 46 23.505c0 12.426-10.07 22.5-22.5 22.5-9.708 0-17.971-6.135-21.12-14.75a23 23 0 0 0 44.875-7 23 23 0 0 0-16-21.875z" opacity=".2"/>
  <path d="M24 1c12.703 0 23 10.297 23 23S36.703 47 24 47 1 36.703 1 24 11.297 1 24 1z" fill="url(#a)"/>
  <path d="M37 18v14l-12 6-12-6V18l12-6" opacity=".1"/>
  <path d="M36 17v14l-12 6-12-6V17l12-6" fill="#bababa"/>
  <path d="M40.03 7.531A22.922 22.922 0 0 1 45.999 23c0 12.703-10.297 23-23 23A22.92 22.92 0 0 1 7.53 40.031C11.708 44.322 17.54 47 23.999 47c12.703 0 23-10.298 23-23 0-6.462-2.677-12.291-6.969-16.469z" opacity=".1"/>
  <path d="M35 19l-4 2v6l4 2zM34.3 30.735l-3.708-2.553L25.004 31v4.4zM34.3 17.247L30.592 19.8 25.004 17v-4.418zM13 19l4 2v6l-4 2z"/>
  <path d="M13.704 30.735l3.708-2.553L23 31v4.4z" fill="#000877"/>
  <path d="M13.704 17.247l3.708 2.553L23 17v-4.418z"/>
  <path d="M20 15a3 3 0 0 0-3 3c0 .645.216 1.229.563 1.719l.125-.063a2.978 2.978 0 0 1-.281-1.25 3 3 0 0 1 3-3c.744 0 1.413.27 1.938.719A2.997 2.997 0 0 0 20.001 15z" fill="#f9f9f9"/>
  <path d="M29 24a5 5 0 1 1-10 0 5 5 0 1 1 10 0z"/>
  <path d="M29.406 28.781L25 31v4.406l5.781-2.906c-.258-1.33-.744-2.567-1.375-3.719zM19.406 22.06A4.95 4.95 0 0 0 19 23.998a5 5 0 0 0 5 5 5.03 5.03 0 0 0 4.125-2.156c-2.109-2.619-5.194-4.406-8.719-4.781zM17 22.03a12.906 12.906 0 0 0-4 .969v6l4-2V22.03z" fill="#000877"/>
</svg>
